assets/icons/informations/leaderboard_outline.svg

<svg viewBox="0 0 24 24" xmlns="http://www.w3.org/2000/svg">
<path d="M3.2998 21C2.8998 21 2.5498 20.85 2.2498 20.55C1.9498 20.25 1.7998 19.9 1.7998 19.5V4.5C1.7998 4.1 1.9498 3.75 2.2498 3.45C2.5498 3.15 2.8998 3 3.2998 3H20.6998C21.0998 3 21.4498 3.15 21.7498 3.45C22.0498 3.75 22.1998 4.1 22.1998 4.5V19.5C22.1998 19.9 22.0498 20.25 21.7498 20.55C21.4498 20.85 21.0998 21 20.6998 21H3.2998ZM3.2998 19.5H20.6998V4.5H3.2998V19.5ZM4.9998 17H9.9998V15H4.9998V17ZM14.5498 15L19.4998 10.05L18.0748 8.625L14.5498 12.175L13.1248 10.75L11.7248 12.175L14.5498 15ZM4.9998 13H9.9998V11H4.9998V13ZM4.9998 9H9.9998V7H4.9998V9Z" fill="inherit"/>
</svg>

<svg viewBox="0 0 24 24" xmlns="http://www.w3.org/2000/svg"><path d="M3.3 21c-.4 0-.8-.1-1-.4-.4-.4-.5-.7-.5-1.1v-15c0-.4.1-.8.4-1C2.5 3 3 3 3.3 3h17.4c.4 0 .7.1 1 .5.3.3.5.6.5 1v15c0 .4-.2.8-.5 1-.3.4-.6.5-1 .5H3.3Zm0-1.5h17.4v-15H3.3v15ZM5 17h5v-2H5v2Zm9.5-2 5-5-1.4-1.4-3.6 3.6-1.4-1.4-1.4 1.4 2.8 2.8ZM5 13h5v-2H5v2Zm0-4h5V7H5v2Z" fill="inherit"/></svg>
